X:1
T:G Major Oliver Holden, 1804
T:Anonymous, First published 1803
T:The Rock No copyright. Transcribed from The Christian Harmonist, 1804.
%%score [ 1 2 3 ]
L:1/8
M:6/8
K:G
V:1 treble nm="Treble" snm="Tr."
V:2 treble-8 nm="Tenor" snm="T."
V:3 bass nm="Bass" snm="B."
V:1
 d | BAB d2 c | BAB d2 G | GAB dcB | A3 A2 d | BAB d2 c | BAB d2 G | ABc BAG | D3 D2 B | BAG dBg | %10
w: 1.~We've|found * the rock, the|tra- * velers cried, *||||||||
 edc cBD | GAB dcB | A3 A2 e | e^de B2 B | AGF E2 F | GBd ecB | A3 G3 |] %17
w: |||||||
V:2
 z | z6 | z4 z B | BAG A2 G | F3 F2 B | GFG B2 A | GFG B2 B | cBA GDG | A3 A2 d | d2 ^c d2 e | %10
w: ||O|Hal- * le, Hal- le-|lu- jah. The|stone * that all the|pro- * phets tried, O|Hal- * le, Hal- * le-|lu- jah. Come|chil- dren, drink the|
 cBG AGA | BAG gfe | d3 d2 B | B2 B e2 e | c2 B B2 d | d2 B ced | d3 B3 |] %17
w: bal- * my dew, * O|Hal- * le, Hal- * le-|lu- jah, 'Tis|Christ, that shed His|blood for you, O|Hal- le, Hal- * le-|lu- jah.|
V:3
 B, | G,F,G, B,2 G, | G,F,G, B,2 G, | G,F,E, F,2 G, | D,3 D,2 z | z6 | z4 z G, | D,2 D, G,F,E, | %8
 D,3 D,2 G, | G,F,E, D,2 C, | E,2 E, E,2 F, | G,F,G, DCB, | F,3 F,2 G, | A,2 E, E,2 E, | %14
 A,,2 B,, E,2 D, | G,2 G, C,2 G, | D,3 [G,,G,]3 |] %17

